images_sukapura_svg/cmd/sc_fontdialog.svg

<svg viewBox="0 0 16 16" xmlns="http://www.w3.org/2000/svg" xmlns:xlink="http://www.w3.org/1999/xlink"><linearGradient id="a" gradientUnits="userSpaceOnUse" x1="10" x2="10" y1="16" y2="-2"><stop offset="0" stop-color="#f7f7f7"/><stop offset=".22222222" stop-color="#fff"/><stop offset=".83333331" stop-color="#fff"/><stop offset="1" stop-color="#f7f7f7"/></linearGradient><linearGradient id="b" gradientTransform="matrix(1 0 0 .53846154 -6 5.307692)" gradientUnits="userSpaceOnUse" x1="12" x2="12" y1="18" y2="5"><stop offset="0" stop-color="#cfcfcf"/><stop offset=".15476191" stop-color="#e7e7e7"/><stop offset=".15476191" stop-color="#fff"/><stop offset=".5" stop-color="#f3f3f3"/><stop offset=".85714287" stop-color="#f9f9f9"/><stop offset=".85714287" stop-color="#fcfcfc"/><stop offset="1" stop-color="#fff"/></linearGradient><linearGradient id="c" gradientTransform="matrix(1 0 0 .39999999 -6 6.7)" gradientUnits="userSpaceOnUse" x1="12" x2="12" y1="12" y2="18.250002"><stop offset="0" stop-color="#f8f8f8"/><stop offset="1" stop-color="#fff"/></linearGradient><g transform="matrix(-1 0 0 1 16 0)"><path d="m7.0566406 1-1.8066406 5h1.25c.1716513 0 .314333.091606.4042969.2226562l.6953125-2.046875c.0615384-.1704717.1269363-.3703605.1953125-.5976562.068376-.2272959.1367021-.47618.2050781-.7460938.061538.2628109.1269364.5090324.1953125.7363282.068376.2272958.136702.4252312.2050781.5957031l1.9082034 5.6367187h-3.308594v1.3847658h3.779297l1.148437 3.367187c.0547.127854.130836.235077.226563.320313.102564.085235.236288.126953.400391.126953h1.445312l-5.046875-14z" fill="#69696e"/><g transform="translate(-2)"><path d="m2 8h6v8h-6z" fill="url(#a)"/><path d="m2 7h6v9h-6z" fill="#626262" stroke-width=".774597"/><path d="m3 8h4v7h-4z" fill="url(#b)" stroke-width=".733799"/><path d="m4 9h2v2.5h-2z" fill="#dadada" stroke-width=".912871"/><path d="m4 11.5h2v2.5h-2z" fill="url(#c)" stroke-width=".632456"/></g></g></svg>

<?xml version="1.0" encoding="UTF-8" standalone="no"?>
<svg
   xmlns:dc="http://purl.org/dc/elements/1.1/"
   xmlns:cc="http://creativecommons.org/ns#"
   xmlns:rdf="http://www.w3.org/1999/02/22-rdf-syntax-ns#"
   xmlns:svg="http://www.w3.org/2000/svg"
   xmlns="http://www.w3.org/2000/svg"
   xmlns:sodipodi="http://sodipodi.sourceforge.net/DTD/sodipodi-0.dtd"
   xmlns:inkscape="http://www.inkscape.org/namespaces/inkscape"
   viewBox="0 0 16 16"
   version="1.1"
   id="svg12"
   sodipodi:docname="sc_fontdialog.svg"
   inkscape:export-filename="/home/rizmut/Documents/Rizmut/Github/libreoffice-style-sukapura/images_sukapura/cmd/sc_fontdialog.png"
   inkscape:export-xdpi="96"
   inkscape:export-ydpi="96"
   inkscape:version="0.92.3 (2405546, 2018-03-11)">
  <metadata
     id="metadata18">
    <rdf:RDF>
      <cc:Work
         rdf:about="">
        <dc:format>image/svg+xml</dc:format>
        <dc:type
           rdf:resource="http://purl.org/dc/dcmitype/StillImage" />
      </cc:Work>
    </rdf:RDF>
  </metadata>
  <defs
     id="defs16">
    <linearGradient
       gradientTransform="translate(-1,-5)"
       id="a-2"
       gradientUnits="userSpaceOnUse"
       x1="11"
       x2="11"
       y1="21"
       y2="3">
      <stop
         offset="0"
         stop-color="#f7f7f7"
         id="stop2" />
      <stop
         offset=".22222222"
         stop-color="#fff"
         id="stop4" />
      <stop
         offset=".83333331"
         stop-color="#fff"
         id="stop6" />
      <stop
         offset="1"
         stop-color="#f7f7f7"
         id="stop8" />
    </linearGradient>
    <linearGradient
       gradientTransform="matrix(1,0,0,0.53846154,-6,5.3076923)"
       id="b"
       gradientUnits="userSpaceOnUse"
       x1="12"
       x2="12"
       y1="18"
       y2="5">
      <stop
         offset="0"
         stop-color="#cfcfcf"
         id="stop11" />
      <stop
         offset="0.15476191"
         stop-color="#e7e7e7"
         id="stop13" />
      <stop
         offset="0.15476191"
         stop-color="#fff"
         id="stop15" />
      <stop
         offset=".5"
         stop-color="#f3f3f3"
         id="stop17" />
      <stop
         offset="0.85714287"
         stop-color="#f9f9f9"
         id="stop19" />
      <stop
         offset="0.85714287"
         stop-color="#fcfcfc"
         id="stop21" />
      <stop
         offset="1"
         stop-color="#fff"
         id="stop23" />
    </linearGradient>
    <linearGradient
       gradientTransform="matrix(1,0,0,0.39999999,-6,6.6999997)"
       id="c"
       gradientUnits="userSpaceOnUse"
       x1="12"
       x2="12"
       y1="12"
       y2="18.250002">
      <stop
         offset="0"
         stop-color="#f8f8f8"
         id="stop26" />
      <stop
         offset="1"
         stop-color="#fff"
         id="stop28" />
    </linearGradient>
  </defs>
  <sodipodi:namedview
     pagecolor="#ffffff"
     bordercolor="#666666"
     borderopacity="1"
     objecttolerance="10"
     gridtolerance="10"
     guidetolerance="10"
     inkscape:pageopacity="0"
     inkscape:pageshadow="2"
     inkscape:window-width="1366"
     inkscape:window-height="685"
     id="namedview14"
     showgrid="true"
     inkscape:zoom="14.75"
     inkscape:cx="-0.71186441"
     inkscape:cy="7.4576271"
     inkscape:window-x="0"
     inkscape:window-y="0"
     inkscape:window-maximized="1"
     inkscape:current-layer="svg12">
    <inkscape:grid
       type="xygrid"
       id="grid878" />
  </sodipodi:namedview>
  <g
     id="g910"
     transform="matrix(-1,0,0,1,16,0)">
    <path
       id="path2"
       d="M 7.0566406,1 5.25,6 H 6.5 C 6.6716513,6 6.814333,6.091606 6.9042969,6.2226562 L 7.5996094,4.1757812 C 7.6611478,4.0053095 7.7265457,3.8054207 7.7949219,3.578125 7.8632979,3.3508291 7.931624,3.101945 8,2.8320312 8.061538,3.0948421 8.1269364,3.3410636 8.1953125,3.5683594 8.2636885,3.7956552 8.3320145,3.9935906 8.4003906,4.1640625 L 10.308594,9.8007812 H 7 v 1.3847658 h 3.779297 l 1.148437,3.367187 c 0.0547,0.127854 0.130836,0.235077 0.226563,0.320313 C 12.256861,14.958282 12.390585,15 12.554688,15 H 14 L 8.953125,1 Z"
       style="fill:#69696e;fill-opacity:1"
       inkscape:connector-curvature="0" />
    <g
       transform="translate(-2)"
       id="g937">
      <path
         sodipodi:nodetypes="ccccc"
         inkscape:connector-curvature="0"
         style="fill:url(#a-2)"
         d="m 2,8 h 6 v 8 H 2 Z"
         id="path31" />
      <path
         sodipodi:nodetypes="ccccc"
         inkscape:connector-curvature="0"
         style="fill:#626262;stroke-width:0.77459669"
         d="m 2,7 h 6 v 9 H 2 Z"
         id="path35" />
      <path
         sodipodi:nodetypes="ccccc"
         inkscape:connector-curvature="0"
         style="fill:url(#b);stroke-width:0.7337994"
         d="m 3,8 h 4 v 7 H 3 Z"
         id="path37" />
      <path
         sodipodi:nodetypes="ccccc"
         inkscape:connector-curvature="0"
         style="fill:#dadada;stroke-width:0.91287094"
         d="m 4,9 h 2 v 2.5 H 4 Z"
         id="path39" />
      <path
         sodipodi:nodetypes="ccccc"
         inkscape:connector-curvature="0"
         style="fill:url(#c);stroke-width:0.63245553"
         d="M 4,11.5 H 6 V 14 H 4 Z"
         id="path41" />
      <g
         transform="translate(-2,-6)"
         style="fill:#a2a2a7"
         id="g51" />
    </g>
  </g>
</svg>
